X:1
T:Sing Ding-a, Ding-a Dong!
T:Sing Ding-a, Ding-a Dong!
T:SSA Chorus and Piano
T:Lynn Shaw Bailey
C:Lynn Shaw Bailey
%%score 1 2 3 { ( 4 6 ) | 5 }
L:1/8
Q:1/2=74
M:2/2
K:F
V:1 treble nm="Sopraan" snm="Sop."
V:2 treble nm="Mezzo-sopraan" snm="Mz. S."
V:3 treble nm="Alt" snm="A."
V:4 treble nm="Piano" snm="Pno."
V:6 treble 
V:5 bass 
V:1
 z8 | z8 | z8 | z8 | z8 | z8 | z8 | z8 | z8 | z8 | z8 | z8 | A4 E4 | FF F2- F3 z | A2 F2 A2 F2 | %15
w: ||||||||||||Ding, dong,|ding- a dong. _|Hear the bells ring,|
 DEFG A3 z | A4 E4 | FF F2 G3 z | A2 F2 A2 F2 | AGFE D3 z | d2 AB A2 A2 | d2 A2 d3 z | d2 AB A3 z | %23
w: ding- a, ding- a dong!|Ding, dong,|ding- a ding, dong.|Join their song, sing|ding- a, ding- a dong!|Hark! Hear the bells this|joy- ful morn.|Oh, how they ring,|
 A2 d2 ^c=B c2 | d2 A_B A2 A2 | d2 A2 B3 z | DEFG A2 A2 | A=B ^c2 d3 z | z8 | BAGF G4 | AGFE F4 | %31
w: ding- ing mer- ri- ly.|Hark! Hear the bells this|joy- ful morn.|Join the hap- py song, sing|ding- a ding, dong!||Ding- a, ding- a dong,|ding- a, ding- a dong,|
 GFED E3 z | D2 E2 F2 A2 | dcBA B4 | A=B ^c2 d4 | BAGF G3 z | AA B2 A2 z2 | AA B2 A2 z2 | %38
w: ding- a, ding- a dong,|ding, dong, ding, dong!|Ding- a, ding- a, dong,|ding- a, ding, dong,|ding- a, ding- a dong.|Hear the bells ring!|Ding- a ding, ding!|
 ^c2 d2 c2 d2 | ^c4- c3 z | d2 AB A2 A2 | d2 A2 d3 z | d2 AB A3 z | A2 d2 ^c=B c2 | d2 A_B A2 A2 | %45
w: Joy- ful news they|bring! _|Hark! Hear the bells this|joy- ful morn.|Oh, how they ring,|ding- ing mer- ri- ly.|Hark! Hear the bells this|
 d2 A2 d3 z | DEFG A2 A2 | A=B ^c2 d3 z |[K:G] z8 | z8 | e2 Bc B2 B2 | e2 B2 e3 z | e2 Bc B3 z | %53
w: joy- ful morn.|Join the hap- py song, sing|ding- a ding, dong!|||Hark! Hear the bells this|joy- ful morn,|Oh, how they ring,|
 B2 e2 ^d^c d2 | e2 B=c B2 B2 | e2 B2 c3 z | EFGA B2 B2 | B^c ^d2 e3 z | e2 B=c B2 B2 | e2 B2 c4 | %60
w: ding- ing mer- ri- ly.|Hark! Hear the bells this|joy- ful morn.|Join the hap- py song, sing|ding- a ding, dong!|Hark! Hear the bells this|joy- ful morn!|
 EFGA B2 B2 | c4 B4 | B6 z2 | B^c^dd z2 e2 | z8 |] %65
w: Join the hap- py song, sing|ding, ding,|dong!|Ding- a, ding- a dong!||
V:2
 z8 | z8 | z8 | z8 | z8 | z8 | z8 | z8 | z8 | z8 | z8 | z8 | A4 E4 | FF F2- F3 z | A2 F2 A2 F2 | %15
w: ||||||||||||Ding, dong,|ding- a dong. _|Hear the bells ring,|
 DEFG A3 z | A4 E4 | FF F2 G3 z | A2 F2 A2 F2 | AGFE D3 z | A4 E4 | FF F2- F3 z | A2 F2 A2 F2 | %23
w: ding- a, ding- a dong!|Ding, dong,|ding- a ding, dong.|Join their song, sing|ding- a, ding- a dong!|Ding, dong,|ding- a dong. _|Hear the bells ring,|
 DEFG A3 z | A4 E4 | FF F2 G3 z | A2 F2 A2 F2 | AGFE D3 z | z8 | BAGF G4 | AGFE F4 | GFED E3 z | %32
w: ding- a, ding- a dong!|Ding, dong,|ding- a ding, dong!|Join their song, sing|ding- a, ding- a dong!||Ding- a, ding- a dong,|ding- a, ding- a dong,|ding- a, ding- a dong,|
 D2 E2 F4 | BAGF G4 | AGFE F4 | GFED E3 z | EE F2 E2 z2 | EE F2 E2 z2 | A2 B2 A2 B2 | A4 AGFE | %40
w: ding, dong, ding!|Ding- a, ding- a dong,|ding- a, ding- a dong,|ding- a, ding- a dong.|Hear the bells ring!|Ding- a ding, ding!|Joy- ful news the|bring! Ding- a, ding- a,|
 A4 E4 | FF F2- F3 z | A2 F2 A2 F2 | DEFG A3 z | A4 E4 | FF F2 G3 z | A2 F2 A2 F2 | AGFE D3 z | %48
w: ding, dong,|ding- a dong. _|Hear the bells ring,|ding- a, ding- a dong!|Ding, dong,|ding- a ding, dong!|Join their song, sing|ding- a, ding- a dong!|
[K:G] z8 | z8 | B4 F4 | GG G2- G3 z | B2 G2 B2 G2 | EFGA B3 z | B4 F4 | GG G2 A3 z | B2 G2 B2 G2 | %57
w: ||Ding, dong,|ding- a dong. _|Hear the bells ring,|ding- a, ding- a dong!|Ding, dong,|ding- a ding, dong!|Join their song, sing|
 BAGF E3 z | B4 F4 | GG G2 A4 | B4 BAGF | A4 F4 | G6 z2 | BABB z2 E2 | z8 |] %65
w: ding- a, ding- a dong!|Ding, dong,|ding- a ding, dong.|Ding, ding- a, ding- a|ding, ding,|dong!|Ding- a, ding- a, dong!||
V:3
 z8 | z8 | z8 | z8 | DDFF D2 DD | A,2 A,A, DDDD | z2 D4 DD | FFFF E3 z | DDFF D2 DD | %9
w: ||||Ding- a, ding- a dong, ding- a|dong, ding- a, ding- a, ding- a|dong, ding- a,|ding- a, ding- a dong.|Ding- a, ding- a dong, ding- a|
 A,2 A,A, DDDD | z2 D4 DD | DD^CC D3 z | DDFF D2 DD | A,2 A,A, DDDD | z2 D4 DD | FFFF E3 z | %16
w: dong, ding- a, ding- a, ding- a|dong, ding- a,|ding- a, ding- a dong!|Ding- a, ding- a dong, ding- a|dong, ding- a, ding- a, ding- a|dong, ding- a,|ding- a, ding- a dong!|
 DDFF D2 DD | A,2 A,A, DDDD | z2 D4 DD | DD^CC D3 z | DDFF D2 DD | A,2 A,A, DDDD | z2 D4 DD | %23
w: Ding- a, ding- a dong, ding- a|dong, ding- a, ding- a, ding- a|dong, ding- a,|ding- a, ding- a dong!|Ding- a, ding- a dong, ding- a|dong, ding- a, ding- a, ding- a|dong, ding- a,|
 FFFF E3 z | DDFF D2 DD | A,2 A,A, DDDD | z2 D4 DD | DD^CC D3 z | z8 | z4 GFED | E4 FED^C | %31
w: ding- a, ding- a dong!|Ding- a, ding- a dong, ding- a|dong, ding- a, ding- a, ding- a|dong, ding- a,|ding- a, ding- a dong!||Ding- a, ding- a|dong, ding- a, ding- a|
 D4 A,2 A,2 | D8 | z4 GFED | E4 FED^C | D4 A,2 A,2 | ^CC D2 C2 z2 | ^CC D2 C2 z2 | E2 F2 E2 F2 | %39
w: dong, ding, dong,|ding!|Ding- a, ding- a|dong, ding- a, ding- a|dong, ding, dong.|Hear the bells ring!|Ding- a ding, ding!|Joy- ful news they|
 !~(!E4 !~)!A,3 z | DDFF D2 DD | A,2 A,A, DDDD | z2 D4 DD | FFFF E3 z | DDFF D2 DD | %45
w: bring! _|Ding- a, ding- a dong, ding- a|dong, ding- a, ding- a, ding- a|dong, ding- a,|ding- a, ding- a dong!|Ding- a, ding- a dong, ding- a|
 A,2 A,A, DDDD | z2 D4 DD | DD^CC D3 z |[K:G] z8 | z8 | EEGG E2 EE | B,2 B,B, EEEE | z2 E4 EE | %53
w: dong, ding- a, ding- a, ding- a|dong, ding- a,|ding- a, ding- a dong!|||Ding- a, ding- a dong, ding- a|dong, ding- a, ding- a, ding- a|dong, ding- a,|
 GGGG F3 z | EEGG E2 EE | B,2 B,B, EEEE | z2 E4 EE | EE^DD E3 z | EEGG E2 EE | B,2 B,B, EEEE | %60
w: ding- a, ding- a dong!|Ding- a, ding- a dong, ding- a|dong, ding- a, ding- a, ding- a|dong, ding- a,|ding- a, ding- a dong!|Ding- a, ding- a dong, ding- a|dong, ding- a, ding- a, ding- a|
 z2 E4 EE | EE E2 ^DD D2 | EE B,2 E2 z2 | BAGF z2 E2 | z8 |] %65
w: dong, ding- a,|ding- a ding, ding- a dong,|ding- a ding dong!|Ding- a, ding- a dong!||
V:4
 da d'2 d2 z2 | da d'2 d2 z2 | da d'2 d2 z2 | da d'2 d2 z2 | da d'2 d2 z2 | da d'2 d2 z2 | %6
 da d'2 d2 z2 | da d'2 ^ca^c'a | da d'2 d2 z2 | da d'2 dgbd' | da d'2 d2 z2 | [da]2 [^ca]2 [dfa]4 | %12
 [dfad']4 [dea]2 [dea]2 | [Adf]4 [FAd]4 | [da]2 [Af]2 [da]2 [Af]2 | defg [^ca]4 | %16
 [dfad']4 [dea]2 [dea]2 | [dfad']4 [Bdg]4 | [da]2 [Af]2 [da]2 [Af]2 | [da]gfe d4 | %20
 [dfad']2 ab [dea]4 | d2 a2 d2 a2 | da d'4 ag | a2 d'2 ^c'=b c'2 | [dfad']2 ab [dea]4 | %25
 da d'2 g2 b2 | defg [da]4 | [dfa]2 [ea^c']2 [fad']4 | [Dd]2 A2 D2 A2 | BAGF G4 | [^CEA]4 [DF]4 | %31
 [DG]2 ED E4 | F2 E2 F2 A2 | BAGF G4 | [^CEA]4 [DF]4 | [B,DG]2 ED [^CE]4 | %36
 [^CEA]2 [B,DB]2 [CEA]2 a2 | [^CEA]2 [DFB]2 [CEA]2 A2 | [EA^c][EAc] [FBd]2 [EAc]2 [FBd]2 | %39
 [GA^ce]4 agfe | [dfad']2 ab [dea]4 | d2 a2 d2 a2 | da d'4 ag | d2 a2 ^c'=b c'2 | %44
 [dfad']2 ab [dea]4 | da d'2 g2 b2 | agfe d4 | d2 a2 [dd']4 |[K:G] bagf e2 g2 | %49
 [^db]2 [dfb]2 [egbe']4 | eb e'2 b4 | e2 b2 e2 b2 | eb e'4 ba | [egb]4 [^db]2 [d^d']2 | %54
 [egbe']4 [efb]2 [efb]2 | [egbe']4 [cea]4 | efga [egb]4 | [Beg]2 [^df]2 e4 | [GBe]4 [Aef]2 [Aef]2 | %59
 [GBeg]4 [Acea]4 | [Begb]4 [Beg]4 | [Ace]4 [FB^d]4 | [GBe]4 [GBe]2 [FB^d]2 | [GBe]2 [FB^d]2 z4 | %64
 [egbe']2 z2 z4 |] %65
V:5
 D2 z2 z2 [DE]2 | [DF]2 z2 z2 [DE]2 | D2 z2 z2 [DE]2 | [DF]2 z2 z2 [DE]2 | D2 z2 z2 [DE]2 | %5
 [DF]2 z2 z2 [DE]2 | [DF]2 z2 z2 [DEG]2 | [DFA]2 z2 [A,E]2 [A,E]2 | [DFA]2 z2 z2 [DEG]2 | %9
 [DFA]2 z2 [B,DF]4 | [A,DF]2 z2 z2 [A,DF]2 | [A,F]2 [A,E]2 D4 | D,A, D2 z2 A,2 | D,A, D2 z2 A,2 | %14
 D,A, D2 D,A, D2 | B,4 [A,E]2 [A,E]2 | D,A, D2 z2 A,2 | D,A, D2 G,2 D2 | [A,F]4 [A,F]4 | %19
 [A,F]2 [A,^C]2 D4 | [D,,D,]4 [A,DE]2 [A,DE]2 | [DF]4 [B,DF]4 | [A,DF]4 [A,DF]2 [A,DF]2 | %23
 [A,F]4 [A,E]2 [A,E]2 | [D,,D,]4 [A,DE]2 [A,DE]2 | [DF]4 [B,DG]4 | [A,DF]6 D2 | A,G,F,E, D,4 | %28
 z2 A,2 D,2 A,,2 | G,,2 D,2 [C,B,]4 | [G,A,]4 [D,A,]4 | [E,,E,]4 A,,2 A,2 | D,2 [A,,G,]2 D,4 | %33
 G,,2 D,2 [C,B,]4 | [G,A,]4 [D,A,]4 | [E,,E,]4 A,,2 A,2 | A,2 z2 z2 A,2 | [A,,A,]2 z2 z2 A,2 | %38
 [A,,A,]4 [A,,A,]4 | [A,,A,]2 [A,,A,]2 [A,,G,A,]4 | [D,,D,]4 [A,DE]2 [A,DE]2 | [DF]4 [B,DF]4 | %42
 [A,DF]4 [A,DF]2 [A,DF]2 | [A,DF]4 [A,E]2 [A,E]2 | [D,,D,]4 [A,DE]2 [A,DE]2 | [DF]4 [B,DG]4 | %46
 [A,DF]4 [DF]2 [A,F]2 | [DF]2 [A,^CE]2 D2 D,2 |[K:G] [E,,E,]4 [A,,E,A,]4 | [B,,F,]4 [E,,E,]4 | %50
 [EG]4 [B,EF]2 [A,EF]2 | [EG]4 [CEG]4 | [EG]4 [B,EG]2 [B,EG]2 | E2 B,2 F2 B,2 | [E,,E,]4 [B,,B,]4 | %55
 [E,E]4 [A,EG]2 E2 | [EG]4 [B,EG]2 [B,EG]2 | B,2 B,,2 E,2 E,,2 | [E,,E,]4 [B,,,B,,]4 | %59
 [E,,E,]4 A,,2 A,2 | E,F,G,A, B,2 B,,2 | E,2 A,2 B,2 [B,,B,]2 | E,,B,,E,B,, E,,2 B,,2- | %63
 B,,A,,G,,F,, z4 | [E,,,E,,]2 z2 z4 |] %65
V:6
 x8 | x8 | x8 | x8 | x8 | x8 | x8 | x8 | x8 | x8 | x8 | x8 | x8 | x8 | x8 | x8 | x8 | x8 | x8 | %19
 x8 | x8 | x8 | x8 | d4 e4 | x8 | da d'2 d4 | x8 | x8 | x8 | D4 E4 | x8 | B,4 ^C4 | D2 D2 D4 | %33
 D4 E4 | x8 | x8 | x8 | x8 | x8 | x8 | x8 | x8 | x8 | d2 a2 e4 | x8 | x8 | x8 | x8 |[K:G] e4 c4 | %49
 x8 | x8 | x8 | x8 | x8 | x8 | x8 | x8 | x8 | x8 | x8 | x8 | x8 | x8 | x8 | x8 |] %65

